X:1
T:Violin Caprice No. 11 in C Major
T:Violin Caprice No. 11 in C Major
T:Op. 1, No. 11
T:Niccolò Paganini
C:Niccolò Paganini
%%score ( 1 2 3 )
L:1/8
Q:1/4=60
M:3/4
K:C
V:1 treble nm="Violin" snm="Vln."
V:2 treble 
V:3 treble 
V:1
"^Andante" g2 (bagf) | (f2 e2 d2) | (c2 cd/c/) Bc | (e2 d2) B2 | ([G,Ecc']b/a/) g2 B2 | %5
 (5:4:5([G,Ecc']/b/_b/a/_a/) g2 B2 | ([_A,_Ecc']_b/_a/) (!>!ag)(!>!g^f) | [G,D=Bg]4 z2 | %8
 g2 (_b_agf) | _e2 (gfed) | ([_A,_Ec][=A,F_e] [_B,Fd])([=B,Gf] [C_Ae][_C=Ae]) | _e2 d2{/A_Bc} TB2 | %12
 ([G,_E_e]d/c/) _B2{/ABc} TB2 | (5:4:5([G,_E_e]/d/_d/c/_c/) _B2{/A=B=c} TB2 | %14
 ([G,_Ec]d/_e/) ([_A,Fe]d/c/) ([A,^Fc]B/c/) | ([G,GB]_a/g/) ([DFB]a/g/) ([_EGc]g/c'/) | %16
 ([F_A_d]_a/f/) ([_EGc]g/_e/) ([DFB]f/=d/) | z/ (.G/.A/._B/ .=B/.c/.^c/.d/ .^d/.e/.f/.^f/) | %18
 g2 (bagf) | (f2 e2) d2 | c2 (cd/c/ Bc) | (e2 d2) g2 | (gc'/b/) (ab/c'/) (ad'/c'/) | %23
 (bc'/d'/) (be'/d'/) (c'd'/e'/) | (f'd') (d'c') (c'b) | %25
 ([CEc][DFc]/[EGc]/) (!>![FAc]!>![_EAc]) (!>![D^Fc]!>![DG_B]) | %26
 (!>![CE_B]!>![C=FA]) (!>![_A,Fd]2 !>![G,Ec]!>![G,D=B]) | [CEce]4 !fermata!z2 || %28
[M:2/4][Q:1/4=95]"^Presto" .c'/>.g/.e/>.c/ (6:4:6g/^f/a/g/=f/d/ | c/>G/E/>C/ (6:4:6G,/B,/C/E/G/B/ | %30
 c/>G/e'/>c/ d/>G/f'/>d/ | (6:4:6e/g/c'/e'/g'/e'/ d'/>D/B,/>G,/ | b/>g/f/>d/ (6:4:6g/b/c'/g/f/e/ | %33
 d/>B/G/>D/ (6:4:6G,/B,/D/G/B/c/ | d/>G/f'/>d/ e/>G/g'/>e/ | (6:4:6f/g/b/d'/g'/f'/ e'/>G/E/>C/ | %36
 e'/>c/B/>d'/ c'/>A/^G/>b/ | a/>F/E/>=g/ f/>D/^C/>e/ | (6:4:6D/F/A/d/f/a/ ^D/>c'/a/>^d/ | %39
 (6:4:6E/^G/B/e/^g/b/ (6:4:6e'/c'/a/e/c/A/ | %40
!8va(! (6:4:6e/^g/b/e'/^g'/b'/ (6:4:6e''/c''/a'/e'/c'/a/ | %41
 (6:4:6e'/^g'/b'/e''/b'/g'/!8va)! (6:4:6e'/b/^g/e/B/^G/ | E2 !fermata!z2 | %43
!8va(! (6:4:6c'/e'/g'/c''/g'/e'/!8va)! c'/>G/E/>C/ | (6:4:6F/A/c/f/a/c'/!8va(! f'/>a'/c''/>f''/ | %45
 (6:4:6a/^c'/e'/a'/e'/c'/!8va)! a/>E/^C/>A,/ | (6:4:6D/F/A/d/f/a/!8va(! d'/>f'/a'/>d''/!8va)! | %47
 _B,/>D/F/>_B/ (6:4:6F/d/B/f/d/B/ | A/>_e/c/>A/ (6:4:6^F/A/F/_E/C/A,/ | %49
 G,/>_B,/D/>G/ (6:4:6D/_B/G/d/B/G/ | F/>_a/f/>d/ (6:4:6_B/f/d/B/_A/F/ | %51
 (6:4:6_E/g/_e/_B/G/E/ (6:4:6D/f/d/=B/F/D/ | (6:4:6C/_e/c/G/_E/C/ (6:4:6_B,/_d/_B/G/_D/B,/ | %53
 _A,/>_e/c/>_a/ (6:4:6g/G/_E/_D/G,/_B,/ | _A,/>_e/c/>_a/ (6:4:6g/G/=E/C/G,/_B,/ | %55
 _A,/>f/c/>_a/ (6:4:6_g/_G/_E/C/A,/C/ | _D/>_a/f/>_d'/ C/>=a/f/>c'/ | %57
 _B,/>f/_d/>_b/ (6:4:6=a/_G/_E/C/A,/C/ | _B,/>_d/_B/>_b/ F/>d/_c/>_A/ | %59
 _G/>_b/_g/>_e/ =D/>_a/f/>d/ | ^D/>^f/^d/>B/ ^A,/>e/^c/>^A/ | %61
 (6:4:6B,/^D/^F/B/^d/^f/ b/>^d'/^f'/>b'/ | (6:4:6A,/C/_E/A/c/_e/ a/>c'/_e'/>a'/ | %63
 (6:4:6_B,/_D/F/_B/_d/f/ _b/>_d'/f'/>_b'/ | (6:4:6G,/_B,/_D/=E/G/_B/ _d/>e/g/>_b/ | %65
 (6:4:6_A,/C/_E/_A/A,/G/ (6:4:6F/_D/F/_B/_B,/A/ | (6:4:6G/_E/G/c/C/_B/ (6:4:6_A/F/A/_d/_D/c/ | %67
 _B/>_D/_B,/>G,/ (6:4:6_b/_E/G/_e/E/_d/ | c/>_e/c/>_A/ (6:4:6_e'/_a/c'/_a'/a/_g'/ | %69
 (6:4:6f'/_d/f/_d'/d/c'/ (6:4:6_b/_g/b/_g'/g/f'/ | (6:4:6_e'/c/_e/c'/c/_b/ (6:4:6=a/f/a/f'/f/e'/ | %71
 _d'/>_d/_B/>_A/ (6:4:6_G/_b/d'/_e'/_g'/G/ | =E/>_d/_B/>E/ (6:4:6_E/_d'/_b/g/d/B/ | %73
 _A/>_c'/_a/>_e'/ ^F/>=b/^f/>^d'/ | E/>b/^g/>e'/ (6:4:6^D/^f'/^d'/a/^f/^d/ | %75
 ^C/>^g/e/>^c'/ (6:4:6B,/=d'/b/g/d/B/ | A,/>e/^c/>a/ A,/>e/=c/>a/ | %77
 (6:4:6G,/_b/g/e/c/_B/ A/>c'/F/>a/ | (6:4:6^C/g/e/^c/A/G/ F/>a/D/>f/ | %79
 C/>_e/A,/>c/ _B,/>d/=B,/>f/ | C/>e/^C/>g/ D/>f/E/>_b/ | F/>a/E/>a/ ^D/>a/E/>g/ | %82
 ^C/>g/=D/>f/ B,/>f/=C/>_e/ | B,/>d/_B,/>_d/ A,/>c/_A,/>^f/ | (6:4:6G,/g/d/B/G/D/ B,/>g/G,/>b/ | %85
 (6:4:6C/_E/G/c/_e/g/ c'/>_e'/^F/>^f/ | (6:4:6G/g'/d'/b/g/d/ B/>g'/G/>b'/ | %87
 (6:4:6c/_e/g/!8va(!c'/_e'/g'/ c''/>_e''/^f/>^f'/ | %88
 (6:4:6g/d''/b'/g'/d'/b/ (6:4:6d/b'/g'/d'/b/g/!8va)! | (6:4:6B/g'/d'/b/g/d/ (6:4:6G/d'/b/g/d/B/ | %90
 (6:4:6D/B,/_A/G/=A,/^F/ (6:4:6D/B,/_A/G/=A,/F/ | (6:4:6(G,/^F/G/A/B/c/ (6:4:6^c/d/_e/=e/f/^f/) || %92
[M:3/4][Q:1/4=60]"^Tempo I" g2 (bagf) | (f2 e2) d2 | c2 (cd/c/ Bc) | (e2 d2) g2 | %96
 (gc'/b/) (ab/c'/) (ad'/c'/) | (bc'/d'/) (be'/d'/) (c'd'/e'/) | (f'd') (d'c') (c'b) | %99
 ([CEc][DFc]/[EGc]/) (!>![FAc]!>![_EAc]) (!>![D^Fc]!>![DG_B]) | %100
 (!>![CE_B]!>![C=FA]) !>![_A,Fd]2 (!>![G,Ec]!>![G,D=B]) | %101
 [CEce] z !>![_A,Fd]2 (!>![G,Ec]!>![G,DB]) | [CGec'] z (!>![_A,Fd]2 !>![G,Ec]!>![G,DB]) | %103
 ([CGee']c'/g/) ([CGec']g/e/) ([CGg]e/c/) | C4 !fermata!z2 |] %105
V:2
 [Ec]2 [DB]4 | [CG]4 [B,^G]2 | [A,E]2 [_A,^F]4 | [G,G]4 G,2 | x4 G,2 | x4 G,2 | x6 | x6 | %8
 [_E_B]2 [DB]4 | [CG]2 [_B,G]4 | x6 | [_B,_B]4 [_A,D]2 | x4 [_A,D]2 | x2 x2 [_A,D]2 | x6 | x6 | %16
 x6 | x6 | [Ec]2 [DB]4 | [CG]4 [B,^G]2 | [A,E]2 [_A,^F]4 | [G,G]4 [FB]2 | [Ec]2 [Fc]2 [^Fd]2 | %23
 [Gd]2 [^Ge]2 [Ae]2 | [_Af]2 [Ge]2 [Gd]2 | x6 | x6 | x6 ||[M:2/4] x4 | x4 | x4 | x4 | x4 | x4 | %34
 x4 | x4 | x4 | x4 | x4 | x4 |!8va(! x4 | x2!8va)! x2 | E2 x2 |!8va(! x2!8va)! x2 | x2!8va(! x2 | %45
 x2!8va)! x2 | x2!8va(! x2!8va)! | x4 | x4 | x4 | x4 | x4 | x4 | x4 | x4 | x4 | x4 | x4 | x4 | x4 | %60
 x4 | x4 | x4 | x4 | x4 | x4 | x4 | x4 | x4 | x4 | x4 | x4 | x4 | x4 | x4 | x4 | x4 | x4 | x4 | %79
 x4 | x4 | x4 | x4 | x4 | x4 | x4 | x4 | x!8va(! x3 | x4!8va)! | x4 | x4 | x4 || %92
[M:3/4] [Ec]2 [DB]4 | [CG]4 [B,^G]2 | [A,E]2 [_A,^F]4 | [G,G]4 [FB]2 | [Ec]2 [Fc]2 [^Fd]2 | %97
 [Gd]2 [^Ge]2 [Ae]2 | [_Af]2 [Ge]2 [Gd]2 | x6 | x6 | x6 | x6 | x6 | x6 |] %105
V:3
 x6 | x6 | x6 | x4{/E} TF2 | x4{/EFG} TF2 | x4{/EFG} TF2 | x6 | x6 | x6 | x6 | x6 | x6 | x6 | x6 | %14
 x6 | x6 | x6 | x6 | x6 | x6 | x6 | x6 | x6 | x6 | x6 | x6 | x6 | x6 ||[M:2/4] x4 | x4 | x4 | x4 | %32
 x4 | x4 | x4 | x4 | x4 | x4 | x4 | x4 |!8va(! x4 | x2!8va)! x2 | x4 |!8va(! x2!8va)! x2 | %44
 x2!8va(! x2 | x2!8va)! x2 | x2!8va(! x2!8va)! | x4 | x4 | x4 | x4 | x4 | x4 | x4 | x4 | x4 | x4 | %57
 x4 | x4 | x4 | x4 | x4 | x4 | x4 | x4 | x4 | x4 | x4 | x4 | x4 | x4 | x4 | x4 | x4 | x4 | x4 | %76
 x4 | x4 | x4 | x4 | x4 | x4 | x4 | x4 | x4 | x4 | x4 | x!8va(! x3 | x4!8va)! | x4 | x4 | x4 || %92
[M:3/4] x6 | x6 | x6 | x6 | x6 | x6 | x6 | x6 | x6 | x6 | x6 | x6 | x6 |] %105

